X:3322
T:Kitty O'Shea
O:england
M:C|
L:1/8
S:Tommy Peoples
K:A
~c3B ~c3B|cBcf ecAc|~B3A ~B3A|Bagf (3efe (3dcB|~c3B ~c3B|cBcf ecAc|\
~B3A ~B3a|(3gfe (3dcB A4::~c3a ~c3A|d2b2 B3c|defg agaf|(3efe (3dcB c2A2|
\
c2a2 ~c3A|d2b2 B3 c|defg agaf|(3efe (3dcB A4::cffa fedc|cfff fedc|cffa f
efg|\
aecA BcA2::A,C2E A3d|cAce fg a2|~A,2CE A3d|cBAc B4|A,C2E A3d|cAce fgaa|\
(3gfe (3fed (3edc (3dcB|(3cBA (3BAG A4::e2=f2 ^f3a|fecA E4|E2=F2 ^F3E|\
EdcB AEAc|e2=f2 ^f3a|fecA E4|E2=F2 ^F3E|EdcB A4::Eccc ccEc|EccE cBAc|\
Bggg BggB|ggBg gfdB|Eccc EcEc|Eccc cBAc|Bggg gbba|(3gfe (3dcB A4::ec2f e
c2e|\
Aeaf ecce|~f3e dcBA|BAGF E2cd|ec2f ec2e|Aeaf ecce|~f3e dcBA|GABG A4:|
